public/img/service-logo.svg

<svg width="175" height="173" viewBox="0 0 175 173" fill="none" xmlns="http://www.w3.org/2000/svg">
<path d="M87.5 172.94C39.2524 172.94 0 134.15 0 86.4701C0 38.7904 39.2524 0 87.5 0C135.748 0 175 38.7904 175 86.4701H158.235C158.235 47.9237 126.505 16.5672 87.5 16.5672C48.4945 16.5672 16.7645 47.9237 16.7645 86.4701C16.7645 125.016 48.4945 156.373 87.5 156.373V172.94Z" fill="#719DD6" fill-opacity="0.5"/>
<path d="M87.4998 147.763C53.3006 147.763 25.4773 120.267 25.4773 86.4703H42.2418C42.2418 111.134 62.5427 131.196 87.4998 131.196C112.457 131.196 132.758 111.134 132.758 86.4703C132.758 61.8069 112.457 41.745 87.4998 41.745V25.1865C121.699 25.1865 149.514 52.6823 149.514 86.4703C149.514 120.267 121.69 147.763 87.4998 147.763Z" fill="#719DD6" fill-opacity="0.5"/>
<path d="M87.5001 122.925C67.1639 122.925 50.6111 106.576 50.6111 86.4701C50.6111 66.3734 67.1551 50.0154 87.5001 50.0154C107.836 50.0154 124.389 66.3646 124.389 86.4701H107.625C107.625 75.5067 98.5941 66.5825 87.5001 66.5825C76.406 66.5825 67.3756 75.5067 67.3756 86.4701C67.3756 97.4336 76.406 106.358 87.5001 106.358V122.925Z" fill="#719DD6" fill-opacity="0.5"/>
</svg>

<svg width="175" height="173" fill="none" xmlns="http://www.w3.org/2000/svg"><path d="M87.5 172.94C39.252 172.94 0 134.15 0 86.47S39.252 0 87.5 0 175 38.79 175 86.47h-16.765c0-38.546-31.73-69.903-70.735-69.903-39.005 0-70.736 31.357-70.736 69.903 0 38.546 31.73 69.903 70.736 69.903v16.567z" fill="#719DD6" fill-opacity=".5"/><path d="M87.5 147.763c-34.2 0-62.023-27.496-62.023-61.293h16.765c0 24.664 20.3 44.726 45.258 44.726 24.957 0 45.258-20.062 45.258-44.726 0-24.663-20.301-44.725-45.258-44.725V25.187c34.199 0 62.014 27.495 62.014 61.283 0 33.797-27.824 61.293-62.014 61.293z" fill="#719DD6" fill-opacity=".5"/><path d="M87.5 122.925c-20.336 0-36.889-16.349-36.889-36.455 0-20.097 16.544-36.455 36.89-36.455 20.335 0 36.888 16.35 36.888 36.455h-16.764c0-10.963-9.03-19.888-20.125-19.888-11.094 0-20.124 8.925-20.124 19.888 0 10.964 9.03 19.888 20.124 19.888v16.567z" fill="#719DD6" fill-opacity=".5"/></svg>
